docsearch/static/img/logos/Netlify.svg

<svg height="40" viewBox="0 0 40 40" width="40" xmlns="http://www.w3.org/2000/svg" xmlns:xlink="http://www.w3.org/1999/xlink"><radialGradient id="a" cx="0%" cy="0%" gradientTransform="scale(1 .998901)" r="100%"><stop offset="0" stop-color="#20c6b7"/><stop offset="1" stop-color="#4d9abf"/></radialGradient><path d="m28.589 14.135-.014-.006c-.008-.003-.016-.006-.023-.013-.0232546-.0249781-.0335986-.059335-.028-.093l.773-4.726 3.625 3.626-3.77 1.604c-.0104771.0042249-.0217063.0062666-.033.0060231h-.015c-.005-.0030231-.01-.0070231-.02-.0170231-.1403008-.1562145-.30808-.2853537-.495-.381zm5.258-.288 3.876 3.876c.805.806 1.208 1.208 1.355 1.674.022.069.04.138.054.209l-9.263-3.923c-.0049777-.0020554-.009978-.0040555-.015-.006-.037-.015-.08-.032-.08-.07s.044-.056.081-.071l.012-.005zm5.127 7.003c-.2.376-.59.766-1.25 1.427l-4.37 4.369-5.652-1.177-.03-.006c-.05-.008-.103-.017-.103-.062-.0433911-.4713092-.2806301-.9034101-.655-1.193-.023-.023-.017-.059-.01-.092 0-.005 0-.01.002-.014l1.063-6.526.004-.022c.006-.05.015-.108.06-.108.4601638-.0572447.8780834-.2968279 1.16-.665.009-.01.015-.021.027-.027.032-.015.07 0 .103.014l9.65 4.082zm-6.625 6.801-7.186 7.186 1.23-7.56.002-.01c.001-.01.003-.02.006-.029.01-.024.036-.034.061-.044l.012-.005c.2693157-.1149054.5075111-.2920953.695-.517.024-.028.053-.055.09-.06.0096031-.0015676.0193969-.0015676.029 0l5.06 1.04zm-8.707 8.707-.81.81-8.955-12.942c-.0032383-.0047338-.0065723-.0094014-.01-.014-.014-.019-.029-.038-.026-.06.001-.016.011-.03.022-.042l.01-.013c.027-.04.05-.08.075-.123l.02-.035.003-.003c.014-.024.027-.047.051-.06.021-.01.05-.006.073-.001l9.921 2.046c.0277403.0043138.0539087.0156764.076.033.013.013.016.027.019.043.1402807.5307603.5205833.9654447 1.028 1.175.028.014.016.045.003.078-.006486.0144631-.011511.0295379-.015.045-.125.76-1.197 7.298-1.485 9.063zm-1.692 1.691c-.597.591-.949.904-1.347 1.03-.3924239.1240902-.8135761.1240902-1.206 0-.466-.148-.869-.55-1.674-1.356l-8.993-8.993 2.349-3.643c.011-.018.022-.034.04-.047.025-.018.061-.01.091 0 .5391605.1626614 1.1180435.1333285 1.638-.083.027-.0099541.054-.017.075.002.0105013.0095854.0198934.0203193.028.032l8.999 13.059zm-14.087-10.186-2.063-2.063 4.074-1.738c.01041347-.0045408.02163982-.0069222.033-.007.034 0 .054.034.072.065.040942.0629884.0843078.1243677.13.184l.013.016c.012.017.004.034-.008.05l-2.25 3.493zm-2.976-2.976-2.61-2.61c-.444-.444-.766-.766-.99-1.043l7.936 1.646c.00996901.0018476.01997064.0035145.03.005.049.008.103.017.103.063 0 .05-.059.073-.109.092l-.023.01zm-4.056-4.995c.00904416-.1681306.03928336-.3344462.09-.495.148-.466.55-.868 1.356-1.674l3.34-3.34c1.53783313 2.2318797 3.07983583 4.4608836 4.626 6.687.027.036.057.076.026.106-.146.161-.292.337-.395.528-.01117396.024551-.02837354.0458785-.05.062-.013.008-.027.005-.042.002h-.002l-8.949-1.877zm5.68-6.403 4.491-4.491c.422.185 1.958.834 3.332 1.414 1.04.44 1.988.84 2.286.97.03.012.057.024.07.054.008.018.004.041 0 .06-.1444092.6585202.0521423 1.3455108.523 1.828.03.03 0 .073-.026.11l-.014.021-4.56 7.063c-.012.02-.023.037-.043.05-.024.015-.058.008-.086.001-.1773551-.0464661-.3596787-.0713132-.543-.074-.164 0-.342.03-.522.063h-.001c-.02.003-.038.007-.054-.005-.0176716-.0144418-.0328709-.0316677-.045-.051zm5.398-5.398 5.814-5.814c.805-.805 1.208-1.208 1.674-1.355.3924239-.1240902.8135761-.1240902 1.206 0 .466.147.869.55 1.674 1.355l1.26 1.26-4.135 6.404c-.0102293.01864308-.0241854.03498188-.041.048-.025.017-.06.01-.09 0-.6618548-.20085389-1.3801835-.06242595-1.92.37-.027.028-.067.012-.101-.003-.54-.235-4.74-2.01-5.341-2.265zm12.506-3.676 3.818 3.818-.92 5.698v.015c-.0008214.012986-.003516.0257851-.008.038-.01.02-.03.024-.05.03-.1967009.0595815-.3819596.1518728-.548.273-.0071383.0050871-.0138293.0107745-.02.017-.011.012-.022.023-.04.0250544-.0146501.0003982-.0292499-.0019785-.043-.0070544l-5.818-2.472-.011-.005c-.037-.015-.081-.033-.081-.071-.0341968-.3242158-.1400876-.6367644-.31-.915-.028-.046-.059-.094-.035-.141zm-3.932 8.606 5.454 2.31c.03.014.063.027.076.058.0052043.0186436.0052043.0383564 0 .057-.016.08-.03.171-.03.263v.153c0 .038-.039.054-.075.069l-.011.004c-.864.369-12.13 5.173-12.147 5.173s-.035 0-.052-.017c-.03-.03 0-.072.027-.11.0047734-.0065913.0094407-.0132588.014-.02l4.482-6.94.008-.012c.026-.042.056-.089.104-.089l.045.007c.102.014.192.027.283.027.68 0 1.31-.331 1.69-.897.0090537-.0151144.0205416-.0286296.034-.04.027-.02.067-.01.098.004zm-6.246 9.185 12.28-5.237s.018 0 .035.017c.067.067.124.112.179.154l.027.017c.025.014.05.03.052.056 0 .01 0 .016-.002.025l-1.052 6.462-.004.026c-.007.05-.014.107-.061.107-.569406.0384334-1.0831685.3553721-1.373.847l-.005.008c-.014.023-.027.045-.05.057-.021.01-.048.006-.07.001l-9.793-2.02c-.01-.002-.152-.519-.163-.52z" fill="url(#a)"/></svg>

<?xml version="1.0" encoding="UTF-8"?>
<svg width="40px" height="40px" viewBox="0 0 40 40" version="1.1" xmlns="http://www.w3.org/2000/svg" xmlns:xlink="http://www.w3.org/1999/xlink">
    <!-- Generator: Sketch 57.1 (83088) - https://sketch.com -->
    <title>Netlify</title>
    <desc>Created with Sketch.</desc>
    <defs>
        <radialGradient cx="0%" cy="0%" fx="0%" fy="0%" r="100%" gradientTransform="translate(0.000000,0.000000),scale(1.000000,0.998901),translate(-0.000000,-0.000000)" id="radialGradient-1">
            <stop stop-color="#20C6B7" offset="0%"></stop>
            <stop stop-color="#4D9ABF" offset="100%"></stop>
        </radialGradient>
    </defs>
    <g id="Page-1" stroke="none" stroke-width="1" fill="none" fill-rule="evenodd">
        <g id="Netlify" fill="url(#radialGradient-1)" fill-rule="nonzero">
            <path d="M28.589,14.135 L28.575,14.129 C28.567,14.126 28.559,14.123 28.552,14.116 C28.5287454,14.0910219 28.5184014,14.056665 28.524,14.023 L29.297,9.297 L32.922,12.923 L29.152,14.527 C29.1415229,14.5312249 29.1302937,14.5332666 29.119,14.5330231 L29.104,14.5330231 C29.099,14.53 29.094,14.526 29.084,14.516 C28.9436992,14.3597855 28.77592,14.2306463 28.589,14.135 Z M33.847,13.847 L37.723,17.723 C38.528,18.529 38.931,18.931 39.078,19.397 C39.1,19.466 39.118,19.535 39.132,19.606 L29.869,15.683 C29.8640223,15.6809446 29.859022,15.6789445 29.854,15.677 C29.817,15.662 29.774,15.645 29.774,15.607 C29.774,15.569 29.818,15.551 29.855,15.536 L29.867,15.531 L33.847,13.847 L33.847,13.847 Z M38.974,20.85 C38.774,21.226 38.384,21.616 37.724,22.277 L33.354,26.646 L27.702,25.469 L27.672,25.463 C27.622,25.455 27.569,25.446 27.569,25.401 C27.5256089,24.9296908 27.2883699,24.4975899 26.914,24.208 C26.891,24.185 26.897,24.149 26.904,24.116 C26.904,24.111 26.904,24.106 26.906,24.102 L27.969,17.576 L27.973,17.554 C27.979,17.504 27.988,17.446 28.033,17.446 C28.4931638,17.3887553 28.9110834,17.1491721 29.193,16.781 C29.202,16.771 29.208,16.76 29.22,16.754 C29.252,16.739 29.29,16.754 29.323,16.768 L38.973,20.85 L38.974,20.85 Z M32.349,27.651 L25.163,34.837 L26.393,27.277 L26.395,27.267 C26.396,27.257 26.398,27.247 26.401,27.238 C26.411,27.214 26.437,27.204 26.462,27.194 L26.474,27.189 C26.7433157,27.0740946 26.9815111,26.8969047 27.169,26.672 C27.193,26.644 27.222,26.617 27.259,26.612 C27.2686031,26.6104324 27.2783969,26.6104324 27.288,26.612 L32.348,27.652 L32.349,27.651 Z M23.642,36.358 L22.832,37.168 L13.877,24.226 C13.8737617,24.2212662 13.8704277,24.2165986 13.867,24.212 C13.853,24.193 13.838,24.174 13.841,24.152 C13.842,24.136 13.852,24.122 13.863,24.11 L13.873,24.097 C13.9,24.057 13.923,24.017 13.948,23.974 L13.968,23.939 L13.971,23.936 C13.985,23.912 13.998,23.889 14.022,23.876 C14.043,23.866 14.072,23.87 14.095,23.875 L24.016,25.921 C24.0437403,25.9253138 24.0699087,25.9366764 24.092,25.954 C24.105,25.967 24.108,25.981 24.111,25.997 C24.2512807,26.5277603 24.6315833,26.9624447 25.139,27.172 C25.167,27.186 25.155,27.217 25.142,27.25 C25.135514,27.2644631 25.130489,27.2795379 25.127,27.295 C25.002,28.055 23.93,34.593 23.642,36.358 Z M21.95,38.049 C21.353,38.64 21.001,38.953 20.603,39.079 C20.2105761,39.2030902 19.7894239,39.2030902 19.397,39.079 C18.931,38.931 18.528,38.529 17.723,37.723 L8.73,28.73 L11.079,25.087 C11.09,25.069 11.101,25.053 11.119,25.04 C11.144,25.022 11.18,25.03 11.21,25.04 C11.7491605,25.2026614 12.3280435,25.1733285 12.848,24.957 C12.875,24.9470459 12.902,24.94 12.923,24.959 C12.9335013,24.9685854 12.9428934,24.9793193 12.951,24.991 L21.95,38.05 L21.95,38.049 Z M7.863,27.863 L5.8,25.8 L9.874,24.062 C9.88441347,24.0574592 9.89563982,24.0550778 9.907,24.055 C9.941,24.055 9.961,24.089 9.979,24.12 C10.019942,24.1829884 10.0633078,24.2443677 10.109,24.304 L10.122,24.32 C10.134,24.337 10.126,24.354 10.114,24.37 L7.864,27.863 L7.863,27.863 Z M4.887,24.887 L2.277,22.277 C1.833,21.833 1.511,21.511 1.287,21.234 L9.223,22.88 C9.23296901,22.8818476 9.24297064,22.8835145 9.253,22.885 C9.302,22.893 9.356,22.902 9.356,22.948 C9.356,22.998 9.297,23.021 9.247,23.04 L9.224,23.05 L4.887,24.887 Z M0.831,19.892 C0.840044156,19.7238694 0.870283357,19.5575538 0.921,19.397 C1.069,18.931 1.471,18.529 2.277,17.723 L5.617,14.383 C7.15483313,16.6148797 8.69683583,18.8438836 10.243,21.07 C10.27,21.106 10.3,21.146 10.269,21.176 C10.123,21.337 9.977,21.513 9.874,21.704 C9.86282604,21.728551 9.84562646,21.7498785 9.824,21.766 C9.811,21.774 9.797,21.771 9.782,21.768 L9.78,21.768 L0.831,19.891 L0.831,19.892 Z M6.511,13.489 L11.002,8.998 C11.424,9.183 12.96,9.832 14.334,10.412 C15.374,10.852 16.322,11.252 16.62,11.382 C16.65,11.394 16.677,11.406 16.69,11.436 C16.698,11.454 16.694,11.477 16.69,11.496 C16.5455908,12.1545202 16.7421423,12.8415108 17.213,13.324 C17.243,13.354 17.213,13.397 17.187,13.434 L17.173,13.455 L12.613,20.518 C12.601,20.538 12.59,20.555 12.57,20.568 C12.546,20.583 12.512,20.576 12.484,20.569 C12.3066449,20.5225339 12.1243213,20.4976868 11.941,20.495 C11.777,20.495 11.599,20.525 11.419,20.558 L11.418,20.558 C11.398,20.561 11.38,20.565 11.364,20.553 C11.3463284,20.5385582 11.3311291,20.5213323 11.319,20.502 L6.511,13.489 L6.511,13.489 Z M11.909,8.091 L17.723,2.277 C18.528,1.472 18.931,1.069 19.397,0.922 C19.7894239,0.797909804 20.2105761,0.797909804 20.603,0.922 C21.069,1.069 21.472,1.472 22.277,2.277 L23.537,3.537 L19.402,9.941 C19.3917707,9.95964308 19.3778146,9.97598188 19.361,9.989 C19.336,10.006 19.301,9.999 19.271,9.989 C18.6091452,9.78814611 17.8908165,9.92657405 17.351,10.359 C17.324,10.387 17.284,10.371 17.25,10.356 C16.71,10.121 12.51,8.346 11.909,8.091 L11.909,8.091 Z M24.415,4.415 L28.233,8.233 L27.313,13.931 L27.313,13.946 C27.3121786,13.958986 27.309484,13.9717851 27.305,13.984 C27.295,14.004 27.275,14.008 27.255,14.014 C27.0582991,14.0735815 26.8730404,14.1658728 26.707,14.287 C26.6998617,14.2920871 26.6931707,14.2977745 26.687,14.304 C26.676,14.316 26.665,14.327 26.647,14.3290544 C26.6323499,14.3294526 26.6177501,14.3270759 26.604,14.322 L20.786,11.85 L20.775,11.845 C20.738,11.83 20.694,11.812 20.694,11.774 C20.6598032,11.4497842 20.5539124,11.1372356 20.384,10.859 C20.356,10.813 20.325,10.765 20.349,10.718 L24.415,4.415 L24.415,4.415 Z M20.483,13.021 L25.937,15.331 C25.967,15.345 26,15.358 26.013,15.389 C26.0182043,15.4076436 26.0182043,15.4273564 26.013,15.446 C25.997,15.526 25.983,15.617 25.983,15.709 L25.983,15.862 C25.983,15.9 25.944,15.916 25.908,15.931 L25.897,15.935 C25.033,16.304 13.767,21.108 13.75,21.108 C13.733,21.108 13.715,21.108 13.698,21.091 C13.668,21.061 13.698,21.019 13.725,20.981 C13.7297734,20.9744087 13.7344407,20.9677412 13.739,20.961 L18.221,14.021 L18.229,14.009 C18.255,13.967 18.285,13.92 18.333,13.92 L18.378,13.927 C18.48,13.941 18.57,13.954 18.661,13.954 C19.341,13.954 19.971,13.623 20.351,13.057 C20.3600537,13.0418856 20.3715416,13.0283704 20.385,13.017 C20.412,12.997 20.452,13.007 20.483,13.021 L20.483,13.021 Z M14.237,22.206 L26.517,16.969 C26.517,16.969 26.535,16.969 26.552,16.986 C26.619,17.053 26.676,17.098 26.731,17.14 L26.758,17.157 C26.783,17.171 26.808,17.187 26.81,17.213 C26.81,17.223 26.81,17.229 26.808,17.238 L25.756,23.7 L25.752,23.726 C25.745,23.776 25.738,23.833 25.691,23.833 C25.121594,23.8714334 24.6078315,24.1883721 24.318,24.68 L24.313,24.688 C24.299,24.711 24.286,24.733 24.263,24.745 C24.242,24.755 24.215,24.751 24.193,24.746 L14.4,22.726 C14.39,22.724 14.248,22.207 14.237,22.206 Z" id="Shape"></path>
        </g>
    </g>
</svg>
